src/images/svg/symbols/markets-stocks-and-indices/american-stocks/stocks-continental-ag.svg

<svg width="32" height="32" viewBox="0 0 32 32" fill="none" xmlns="http://www.w3.org/2000/svg">
<path d="M0 16C0 7.16344 7.16344 0 16 0C24.8366 0 32 7.16344 32 16C32 24.8366 24.8366 32 16 32C7.16344 32 0 24.8366 0 16Z" fill="#FAAF42"/>
<path d="M19.5129 15.5394C19.7187 15.5394 19.7934 15.7225 19.7934 15.9567V17.7422H20.9463V17.4968H20.6306V16.0501C20.6322 15.909 20.6201 15.768 20.5947 15.6291C20.52 15.321 20.2815 15.0868 19.8936 15.0868C19.7458 15.0848 19.6007 15.1262 19.4762 15.2059C19.3517 15.2857 19.2535 15.4003 19.1936 15.5354H19.1806V15.1371H18.139V15.3745H18.3851V17.4968H18.139V17.7422H19.4648V17.4968H19.2237V15.9567C19.2237 15.7225 19.3071 15.5394 19.5129 15.5394Z" fill="#231F20"/>
<path d="M14.1598 15.5394C14.3663 15.5394 14.4417 15.7225 14.4417 15.9567L14.4399 17.7422H15.594V17.4968H15.2757V16.0501C15.2773 15.909 15.2653 15.768 15.2398 15.6291C15.1651 15.321 14.9255 15.0868 14.5369 15.0868C14.3894 15.0848 14.2447 15.1263 14.1206 15.2061C13.9966 15.2859 13.8988 15.4004 13.8394 15.5354H13.8265V15.1371H12.7849V15.3745H13.0313V17.4968H12.7849V17.7422H14.1127V17.4968H13.8724V15.9567C13.8724 15.7225 13.9533 15.5394 14.1598 15.5394Z" fill="#231F20"/>
<path d="M22.0749 17.3018V15.3745H22.4789V15.1371H22.0741V14.436H21.919C21.6853 14.6271 21.4034 14.8467 21.138 15.0535C21.0738 15.1035 21.0106 15.1527 20.9492 15.2007V15.3745H21.233V17.1535C21.233 17.5751 21.4743 17.7727 21.8881 17.7727C22.2415 17.7727 22.4006 17.6761 22.4006 17.6761V17.4379C22.3505 17.455 22.2981 17.4644 22.2451 17.4656C22.1618 17.4656 22.0749 17.4336 22.0749 17.3018Z" fill="#231F20"/>
<path d="M6.46272 14.7362C6.16712 14.4119 5.52887 13.7852 5.52887 13.7852V14.1357C5.21944 14.0298 4.8944 13.9767 4.56736 13.9787C3.163 13.9787 2 15.0599 2 16.4398C2 17.8197 3.04771 18.9041 4.56736 18.9041C5.41788 18.9041 6.10031 18.5765 6.47205 18.0726V17.8384C6.19837 18.1308 5.70666 18.4156 5.09104 18.4156C3.85692 18.4156 3.14684 17.5356 3.14684 16.4402C3.14684 15.3447 3.89571 14.459 5.09104 14.459C5.61866 14.459 6.18651 14.6971 6.46272 14.9816V14.7362Z" fill="#231F20"/>
<path fill-rule="evenodd" clip-rule="evenodd" d="M17.1711 17.2889C17.4498 17.2889 17.6351 17.1858 17.7529 17.049L17.893 17.1772C17.7027 17.5511 17.3769 17.7906 16.8611 17.7906C16.0587 17.7906 15.6507 17.1955 15.6507 16.4434C15.6507 15.6913 16.0634 15.0868 16.8611 15.0868C17.6588 15.0868 17.9648 15.6324 17.9648 16.3662C17.9648 16.4118 17.9609 16.5059 17.9562 16.5519H16.5397C16.5555 17.1574 16.9294 17.2889 17.1711 17.2889ZM16.8335 15.3555C16.595 15.3555 16.5397 15.6133 16.5397 16.2986H17.1316C17.1233 15.6069 17.0719 15.3555 16.8335 15.3555Z" fill="#231F20"/>
<path fill-rule="evenodd" clip-rule="evenodd" d="M5.18729 17.8671C4.34504 17.8671 3.85405 17.2275 3.85405 16.4402C3.85405 15.6518 4.34647 15.0128 5.18729 15.0128C6.02812 15.0128 6.52126 15.6529 6.52126 16.4402C6.52126 17.2275 6.02955 17.8671 5.18729 17.8671ZM5.18765 15.2858C4.91217 15.2858 4.83746 15.6363 4.83746 16.4315H4.8371C4.8371 17.2275 4.91504 17.578 5.18729 17.578C5.45955 17.578 5.53713 17.2275 5.53713 16.4315C5.53713 15.6356 5.46314 15.2858 5.18765 15.2858Z" fill="#231F20"/>
<path d="M8.11635 15.5394C8.32323 15.5394 8.39794 15.7225 8.39794 15.9567L8.3983 17.7422H9.55447V17.4968H9.2366V16.0501C9.23744 15.909 9.22542 15.7681 9.20069 15.6291C9.12562 15.321 8.88785 15.0868 8.49886 15.0868C8.35124 15.085 8.20633 15.1265 8.08208 15.2062C7.95784 15.286 7.85973 15.4004 7.79991 15.5354H7.78555V15.1371H6.74395V15.3745H6.9889V17.4968H6.74395V17.7422H8.06858V17.4968H7.82649V15.9567C7.82649 15.7225 7.90946 15.5394 8.11635 15.5394Z" fill="#231F20"/>
<path d="M11.9128 14.8296C11.6118 14.8296 11.4006 14.6788 11.4006 14.4464C11.4006 14.2176 11.6111 14.0653 11.9128 14.0653C12.2145 14.0653 12.4257 14.214 12.4257 14.4464C12.4257 14.6788 12.2138 14.8296 11.9128 14.8296Z" fill="#231F20"/>
<path d="M10.6772 17.3018V15.3745H11.0037V15.1371H10.6783V14.436H10.5235C10.302 14.6163 10.0385 14.822 9.78709 15.0183C9.70755 15.0804 9.6292 15.1415 9.55375 15.2007V15.3745H9.8357V17.1535C9.8357 17.5748 10.0774 17.7727 10.4901 17.7727C10.8432 17.7727 11.0027 17.6761 11.0027 17.6761V17.4379C10.9528 17.455 10.9006 17.4643 10.8478 17.4656C10.7645 17.4656 10.6772 17.4336 10.6772 17.3018Z" fill="#231F20"/>
<path d="M26.4848 17.4968H26.1615L26.1619 14.1752H25.0341V14.4119H25.3243V17.7422H26.2035V17.8492H30V17.7278H26.4848V17.4968Z" fill="#231F20"/>
<path fill-rule="evenodd" clip-rule="evenodd" d="M23.9447 17.4297H23.9573L23.9591 17.7418H25.0323V17.4965H24.7611V16.0296C24.7611 15.4611 24.3797 15.0864 23.7375 15.0864C23.356 15.0864 22.9473 15.2696 22.6822 15.6751L22.8259 15.8511C22.8972 15.7576 22.989 15.6816 23.0942 15.6289C23.1994 15.5763 23.3152 15.5483 23.4329 15.5473C23.7224 15.5473 23.9199 15.7146 23.9199 16.0307V16.1941C23.9199 16.1941 23.7906 16.1399 23.5432 16.1399C22.9412 16.1399 22.5644 16.4714 22.5644 16.9933C22.5644 17.4257 22.8352 17.7906 23.2662 17.7906C23.5855 17.7906 23.7906 17.6452 23.9447 17.4297ZM23.74 16.3963C23.8467 16.3963 23.8987 16.4276 23.9214 16.4524V17.2551C23.8956 17.281 23.8647 17.3013 23.8307 17.3147C23.7967 17.328 23.7603 17.3342 23.7238 17.3327C23.5101 17.3327 23.4343 17.1373 23.4343 16.888C23.4343 16.6388 23.4886 16.3963 23.74 16.3963Z" fill="#231F20"/>
<path d="M11.248 17.4968V17.7422H12.5712V17.4968H12.3255V15.1371H11.248V15.3745H11.4904V17.4968H11.248Z" fill="#231F20"/>
<path d="M28.0993 17.139L28.4584 16.8029L28.6061 16.9466L28.221 17.2677C28.1932 17.3114 28.1692 17.3574 28.1492 17.4052H27.8651C27.881 17.3024 28.0261 17.1758 28.0993 17.139Z" fill="#231F20"/>
<path d="M26.9079 14.9945C26.8978 14.9984 26.6137 15.0742 26.6137 15.0742C26.548 15.0985 26.4842 15.1278 26.423 15.1618C26.3645 15.2006 26.2973 15.2653 26.2955 15.3001L26.5469 15.3569C26.5843 15.3148 26.6246 15.2754 26.6676 15.2391L26.7265 15.2125L26.9355 15.0024C26.9323 14.9984 26.9279 14.9956 26.9229 14.9942C26.918 14.9927 26.9128 14.9929 26.9079 14.9945Z" fill="#231F20"/>
<path d="M28.6258 15.6769C28.4684 15.5104 28.3243 15.3318 28.1948 15.1428C28.2799 14.983 28.3431 14.5588 28.3026 14.395C28.286 14.3447 28.147 14.1616 28.123 14.1353C28.1198 14.1321 28.116 14.1282 28.1117 14.1238C28.1094 14.1215 28.107 14.119 28.1045 14.1164C28.0578 14.0679 27.9679 13.9744 27.9204 13.9744C27.9106 13.9743 27.901 13.9771 27.8927 13.9823L27.9093 14.1238C27.7577 14.2187 27.5594 14.3494 27.3806 14.4783C27.3806 14.5286 27.3856 14.6051 27.3881 14.6321C27.4158 14.6551 27.4474 14.673 27.4815 14.6849C27.5021 14.6815 27.5345 14.6746 27.5717 14.6668C27.664 14.6474 27.7856 14.6218 27.8274 14.6274L27.6119 14.9446L27.3673 15.1159L27.0595 15.0203C27.0504 15.0183 27.0409 15.0186 27.032 15.0214C27.0231 15.0242 27.0151 15.0293 27.0088 15.0361L26.7872 15.2764C26.7804 15.2827 26.775 15.2904 26.7715 15.2989C26.7681 15.3075 26.7665 15.3168 26.7671 15.326L26.7595 15.5975C26.7595 15.5975 26.7563 15.6388 26.7563 15.6852C26.7563 15.8795 26.8457 15.9703 26.8457 15.9703L26.993 15.7609C26.9661 15.7129 26.945 15.6617 26.9302 15.6087C26.9302 15.6008 26.9341 15.3759 26.9341 15.3759L27.0778 15.2725L27.4589 15.5361C27.5183 15.6438 27.5873 15.746 27.665 15.8414C27.7304 15.9215 28.0601 16.1384 28.2199 16.2307C28.2395 16.3301 28.2656 16.428 28.2982 16.5238L28.7652 16.994L28.4882 17.3341C28.3909 17.3948 28.2979 17.5054 28.3054 17.6085H28.624L28.6599 17.4289L29.0399 17.013C29.0597 16.99 29.0597 16.9771 29.0493 16.9448L28.9397 16.5856C28.9936 16.5231 29.1107 16.3701 29.1107 16.1873C29.1107 15.938 28.9004 15.8287 28.7473 15.749C28.6972 15.723 28.6532 15.7001 28.6247 15.6765L28.6258 15.6769Z" fill="#231F20"/>
<path d="M29.2238 16.23C29.2027 16.1486 29.1729 16.0697 29.1348 15.9948C29.1348 15.9948 29.1509 15.979 29.1818 15.9987C29.2127 16.0185 29.4117 16.1503 29.4117 16.1503C29.5126 16.2961 29.5744 16.892 29.579 17.1057C29.4664 17.0559 29.3614 16.9904 29.2673 16.911L29.2238 16.23Z" fill="#231F20"/>
<path d="M25.4586 19.232H25.3383V20.2017H25.5308V19.4708C25.612 19.4245 25.7104 19.3746 25.8182 19.3746C25.9119 19.3746 25.9669 19.408 25.9669 19.5276V20.2007H26.1604V19.4845C26.1604 19.2726 26.0444 19.2169 25.9069 19.2169C25.7699 19.221 25.6379 19.2691 25.5305 19.3541C25.5258 19.2521 25.5057 19.232 25.4586 19.232Z" fill="#231F20"/>
<path fill-rule="evenodd" clip-rule="evenodd" d="M24.6142 20.214C24.8825 20.214 25.0858 20.0279 25.0858 19.7201C25.0858 19.4123 24.8825 19.2173 24.6142 19.2173C24.3459 19.2173 24.1437 19.4098 24.1437 19.7201C24.1437 20.0304 24.3473 20.214 24.6142 20.214ZM24.6142 20.0703C24.4501 20.0703 24.3405 19.9532 24.3405 19.7187C24.3405 19.4841 24.4501 19.3595 24.6142 19.3595C24.7784 19.3595 24.8901 19.4859 24.8901 19.7187C24.8901 19.9514 24.7823 20.0703 24.6142 20.0703Z" fill="#231F20"/>
<path d="M23.7935 19.126C23.8225 19.1262 23.8505 19.1151 23.8714 19.0949C23.8924 19.0748 23.9046 19.0473 23.9056 19.0183C23.9066 18.9957 23.9009 18.9732 23.8891 18.9539C23.8773 18.9346 23.86 18.9192 23.8393 18.9099C23.8187 18.9005 23.7958 18.8975 23.7734 18.9014C23.7511 18.9052 23.7305 18.9156 23.7141 18.9313C23.6978 18.947 23.6866 18.9673 23.6819 18.9894C23.6772 19.0116 23.6792 19.0346 23.6878 19.0556C23.6963 19.0766 23.711 19.0945 23.7298 19.107C23.7487 19.1196 23.7709 19.1262 23.7935 19.126Z" fill="#231F20"/>
<path d="M23.8862 20.2035V19.3767C23.8862 19.255 23.8768 19.2331 23.8018 19.2331H23.694V20.2028L23.8862 20.2035Z" fill="#231F20"/>
<path d="M22.8614 19.3685H22.98V19.9647C22.98 20.1443 23.0795 20.2161 23.2458 20.2161C23.299 20.2164 23.352 20.2097 23.4034 20.1964V20.0746H23.314C23.2167 20.0746 23.1732 20.0451 23.1732 19.9439V19.3692H23.3923V19.2356H23.1725V18.9727H22.9793V19.2356H22.8607L22.8614 19.3685Z" fill="#231F20"/>
<path fill-rule="evenodd" clip-rule="evenodd" d="M22.2426 20.2168C22.5098 20.2168 22.7138 20.0308 22.7138 19.723C22.7138 19.4152 22.5098 19.2201 22.2426 19.2201C21.9754 19.2201 21.7706 19.4126 21.7706 19.723C21.7706 20.0333 21.9739 20.2168 22.2426 20.2168ZM22.2426 20.0732C22.0759 20.0732 21.966 19.9561 21.966 19.7215C21.966 19.487 22.0759 19.3624 22.2426 19.3624C22.4092 19.3624 22.5181 19.4888 22.5181 19.7215C22.5181 19.9543 22.4103 20.0732 22.2426 20.0732Z" fill="#231F20"/>
<path d="M20.2513 20.205H20.4205V19.1433H20.4299L20.802 20.2007H20.9302L21.3087 19.1433H21.3134V20.2007H21.5167V18.9041H21.2376L20.8896 19.8878H20.886L20.5362 18.9041H20.2513V20.205Z" fill="#231F20"/>
<path d="M18.7493 19.2352H18.629V20.205H18.8211V19.4708C18.9026 19.4245 19.0043 19.3746 19.1106 19.3746C19.2044 19.3746 19.2589 19.408 19.2589 19.5276V20.2007H19.4522V19.4845C19.4522 19.2726 19.3376 19.2169 19.1982 19.2169C19.0611 19.2213 18.929 19.2694 18.8211 19.3541C18.8175 19.2521 18.7963 19.232 18.7493 19.232V19.2352Z" fill="#231F20"/>
<path d="M18.2105 19.1242C18.2397 19.1245 18.2678 19.1134 18.289 19.0933C18.3101 19.0732 18.3225 19.0456 18.3237 19.0165C18.322 18.9875 18.3094 18.9603 18.2883 18.9404C18.2672 18.9205 18.2393 18.9094 18.2103 18.9094C18.1813 18.9094 18.1535 18.9205 18.1324 18.9404C18.1113 18.9603 18.0987 18.9875 18.097 19.0165C18.0981 19.0457 18.1105 19.0734 18.1318 19.0936C18.153 19.1137 18.1813 19.1247 18.2105 19.1242Z" fill="#231F20"/>
<path d="M18.3036 20.2017V19.3767C18.3036 19.255 18.2956 19.2331 18.2199 19.2331H18.1121V20.2028L18.3036 20.2017Z" fill="#231F20"/>
<path fill-rule="evenodd" clip-rule="evenodd" d="M17.3834 19.7539V19.6871C17.3834 19.3685 17.2307 19.218 16.9696 19.218C16.7085 19.218 16.521 19.4105 16.521 19.7208C16.521 20.0311 16.6884 20.2147 16.9879 20.2147C17.1176 20.22 17.2457 20.1841 17.3539 20.1123V19.9816H17.2921C17.214 20.0421 17.1173 20.0737 17.0184 20.071C16.8338 20.071 16.7282 19.9823 16.7178 19.7535L17.3834 19.7539ZM16.9705 19.3476C17.1065 19.3477 17.1894 19.4196 17.1944 19.6289H16.7225C16.744 19.4228 16.8427 19.3477 16.9705 19.3476ZM16.9705 19.3476C16.9705 19.3476 16.9706 19.3476 16.9707 19.3476H16.9703C16.9704 19.3476 16.9704 19.3476 16.9705 19.3476Z" fill="#231F20"/>
<path d="M16.3331 19.3853C16.3392 19.3853 16.3748 19.3882 16.3748 19.3882V19.2313C16.358 19.2259 16.3404 19.2235 16.3227 19.2241C16.268 19.2262 16.2145 19.2402 16.1657 19.265C16.1169 19.2898 16.074 19.3248 16.04 19.3677C16.0361 19.2542 16.0153 19.2341 15.9682 19.2341H15.8486V20.2039H16.04V19.4938C16.1211 19.4229 16.2255 19.3845 16.3331 19.3861V19.3853Z" fill="#231F20"/>
<path d="M15.048 20.0685C14.9575 20.0685 14.8954 20.039 14.8954 19.9148V19.232H14.7036V19.9539C14.7036 20.1507 14.8178 20.2143 14.9722 20.2143C15.1009 20.2097 15.2253 20.1669 15.3296 20.0915C15.3339 20.1863 15.3533 20.1992 15.3982 20.1992H15.5221V19.2295H15.3296V19.9712C15.2455 20.0248 15.1493 20.0563 15.0498 20.0627L15.048 20.0685Z" fill="#231F20"/>
<path d="M13.9234 19.3631H14.042V19.9593C14.042 20.1389 14.1411 20.2107 14.3092 20.2107C14.3619 20.211 14.4144 20.2043 14.4654 20.191V20.0692H14.3774C14.2797 20.0692 14.2338 20.0398 14.2338 19.9385V19.3638H14.4539V19.2302H14.2338V18.9673H14.0409V19.2302H13.9224L13.9234 19.3631Z" fill="#231F20"/>
<path d="M13.2033 20.0627C13.1124 20.0627 13.0507 20.0333 13.0507 19.909V19.232H12.8585V19.9539C12.8585 20.1507 12.9738 20.2143 13.1282 20.2143C13.2564 20.2098 13.3802 20.167 13.4838 20.0915C13.4896 20.1863 13.5097 20.1992 13.5535 20.1992H13.6742V19.2295H13.4824V19.9712C13.3986 20.0249 13.3026 20.0564 13.2033 20.0627Z" fill="#231F20"/>
<path d="M12.0899 20.1982V19.6429H12.5528V19.4938H12.0892V19.0599H12.6979V18.9041H11.8859V20.2007L12.0899 20.1982Z" fill="#231F20"/>
<path fill-rule="evenodd" clip-rule="evenodd" d="M11.1402 19.7528C11.1402 19.75 11.1405 19.7441 11.1408 19.7364C11.1415 19.7225 11.1424 19.7029 11.1424 19.686C11.1424 19.3674 10.9886 19.2169 10.7293 19.2169C10.47 19.2169 10.2786 19.4094 10.2786 19.7197C10.2786 20.0301 10.4463 20.2136 10.7491 20.2136C10.8775 20.2188 11.0043 20.1838 11.1118 20.1134V19.9816H11.049C10.9707 20.0424 10.8737 20.074 10.7746 20.071C10.5914 20.071 10.4854 19.9823 10.4757 19.7535L11.1402 19.7528ZM10.729 19.344C10.8637 19.344 10.9477 19.4159 10.9513 19.6253H10.4786C10.4984 19.4191 10.5997 19.344 10.7282 19.344H10.729Z" fill="#231F20"/>
<path d="M9.39967 19.029C9.39967 18.9213 9.3853 18.9044 9.31203 18.9044H9.20679V20.2007H9.39967V19.4708C9.47977 19.4245 9.57926 19.3746 9.68701 19.3746C9.78039 19.3746 9.83714 19.408 9.83714 19.5276V20.2007H10.0268V19.4845C10.0268 19.2726 9.91293 19.2169 9.77536 19.2169C9.63843 19.2211 9.50647 19.2692 9.39895 19.3541L9.39967 19.029Z" fill="#231F20"/>
<path d="M8.60159 20.2007V19.056H8.98159V18.9041H8.01757V19.0556H8.3965V20.2007H8.60159Z" fill="#231F20"/>
</svg>

<svg width="32" height="32" fill="none" xmlns="http://www.w3.org/2000/svg"><path d="M0 16C0 7.163 7.163 0 16 0s16 7.163 16 16-7.163 16-16 16S0 24.837 0 16Z" fill="#FAAF42"/><path d="M19.513 15.54c.206 0 .28.183.28.417v1.785h1.153v-.245h-.315V16.05a2.202 2.202 0 0 0-.036-.42.682.682 0 0 0-.701-.543.755.755 0 0 0-.7.448h-.013v-.398h-1.042v.237h.246v2.123h-.246v.245h1.326v-.245h-.241v-1.54c0-.235.083-.418.289-.418ZM14.16 15.54c.206 0 .282.183.282.417l-.002 1.785h1.154v-.245h-.318V16.05a2.194 2.194 0 0 0-.036-.42.684.684 0 0 0-.703-.543.75.75 0 0 0-.698.448h-.013v-.398h-1.041v.237h.246v2.123h-.246v.245h1.328v-.245h-.24v-1.54c0-.235.08-.418.287-.418ZM22.075 17.302v-1.928h.404v-.237h-.405v-.701h-.155c-.234.191-.516.41-.781.617l-.189.148v.173h.284v1.78c0 .421.241.619.655.619.353 0 .513-.097.513-.097v-.238a.518.518 0 0 1-.156.028c-.083 0-.17-.032-.17-.164ZM6.463 14.736a34.11 34.11 0 0 0-.934-.95v.35a2.914 2.914 0 0 0-.962-.157c-1.404 0-2.567 1.08-2.567 2.46s1.048 2.465 2.567 2.465c.85 0 1.533-.328 1.905-.831v-.235a1.917 1.917 0 0 1-1.381.578c-1.234 0-1.944-.88-1.944-1.976 0-1.095.749-1.981 1.944-1.981.528 0 1.096.238 1.372.523v-.246Z" fill="#231F20"/><path fill-rule="evenodd" clip-rule="evenodd" d="M17.171 17.289c.279 0 .464-.103.582-.24l.14.128c-.19.374-.516.614-1.032.614-.802 0-1.21-.596-1.21-1.348 0-.752.412-1.356 1.21-1.356s1.104.545 1.104 1.28c0 .045-.004.139-.009.185H16.54c.015.605.39.737.631.737Zm-.337-1.934c-.239 0-.294.258-.294.944h.592c-.009-.692-.06-.944-.299-.944ZM5.187 17.867c-.842 0-1.333-.64-1.333-1.427 0-.788.492-1.427 1.333-1.427s1.334.64 1.334 1.427-.491 1.427-1.334 1.427Zm0-2.581c-.275 0-.35.35-.35 1.146 0 .796.078 1.146.35 1.146.273 0 .35-.35.35-1.146 0-.796-.074-1.146-.35-1.146Z" fill="#231F20"/><path d="M8.116 15.54c.207 0 .282.183.282.417v1.785h1.156v-.245h-.317V16.05c0-.141-.012-.282-.036-.42a.682.682 0 0 0-.702-.543.755.755 0 0 0-.7.448h-.013v-.398H6.744v.237h.245v2.123h-.245v.245h1.325v-.245h-.243v-1.54c0-.235.083-.418.29-.418ZM11.913 14.83c-.301 0-.512-.151-.512-.384 0-.228.21-.38.512-.38.301 0 .513.148.513.38 0 .233-.212.384-.513.384ZM10.677 17.302v-1.928h.327v-.237h-.326v-.701h-.155c-.221.18-.484.386-.736.582l-.233.183v.173h.282v1.78c0 .42.241.619.654.619.353 0 .513-.097.513-.097v-.238a.517.517 0 0 1-.155.028c-.084 0-.17-.032-.17-.164ZM26.485 17.497h-.323v-3.322h-1.128v.237h.29v3.33h.88v.107H30v-.121h-3.515v-.231Z" fill="#231F20"/><path fill-rule="evenodd" clip-rule="evenodd" d="M23.945 17.43h.012l.002.312h1.073v-.245h-.27V16.03c0-.569-.382-.944-1.024-.944-.382 0-.79.184-1.056.59l.144.175a.773.773 0 0 1 .607-.304c.29 0 .487.168.487.484v.163s-.13-.054-.377-.054c-.602 0-.979.331-.979.853 0 .433.271.798.702.798.32 0 .525-.146.679-.361Zm-.205-1.034c.107 0 .159.032.181.056v.803a.265.265 0 0 1-.197.078c-.214 0-.29-.196-.29-.445 0-.25.055-.492.306-.492Z" fill="#231F20"/><path d="M11.248 17.497v.245h1.323v-.245h-.245v-2.36h-1.078v.237h.242v2.123h-.242ZM28.1 17.139l.358-.336.148.144-.385.32a.912.912 0 0 0-.072.138h-.284c.016-.103.161-.23.234-.266ZM26.908 14.995l-.294.08c-.066.024-.13.053-.191.087-.058.039-.126.103-.127.138l.25.057c.038-.042.079-.082.122-.118l.059-.027.209-.21a.024.024 0 0 0-.013-.008.025.025 0 0 0-.015 0Z" fill="#231F20"/><path d="M28.626 15.677a4.387 4.387 0 0 1-.431-.534c.085-.16.148-.584.108-.748a1.685 1.685 0 0 0-.18-.26l-.011-.011-.007-.008c-.047-.048-.137-.142-.185-.142-.01 0-.019.003-.027.008l.016.142c-.151.095-.35.225-.528.354 0 .05.005.127.007.154.028.023.06.041.093.053l.09-.018c.093-.02.215-.045.256-.04l-.215.318-.245.17-.308-.095a.053.053 0 0 0-.05.016l-.222.24a.063.063 0 0 0-.02.05l-.008.272s-.003.04-.003.087c0 .194.09.285.09.285l.147-.21a.693.693 0 0 1-.063-.151l.004-.233.144-.103.38.263c.06.108.13.21.207.305.065.08.395.297.555.39.02.1.046.197.078.293l.467.47-.277.34c-.097.06-.19.171-.183.274h.319l.036-.18.38-.415c.02-.023.02-.036.01-.068l-.11-.36c.054-.062.17-.215.17-.398 0-.249-.21-.358-.363-.438a.75.75 0 0 1-.122-.072ZM29.224 16.23a1.162 1.162 0 0 0-.09-.235s.017-.016.048.004l.23.151c.1.146.162.742.167.956a1.296 1.296 0 0 1-.312-.195l-.043-.681ZM25.459 19.232h-.12v.97h.192v-.731a.594.594 0 0 1 .287-.096c.094 0 .149.033.149.153v.673h.193v-.716c0-.212-.116-.268-.253-.268a.637.637 0 0 0-.377.137c-.004-.102-.024-.122-.071-.122Z" fill="#231F20"/><path fill-rule="evenodd" clip-rule="evenodd" d="M24.614 20.214c.268 0 .472-.186.472-.494s-.203-.503-.472-.503c-.268 0-.47.193-.47.503s.203.494.47.494Zm0-.144c-.164 0-.274-.117-.274-.351 0-.235.11-.36.274-.36.164 0 .276.127.276.36 0 .232-.108.351-.276.351Z" fill="#231F20"/><path d="M23.794 19.126a.111.111 0 0 0 .112-.108.114.114 0 0 0-.067-.108.112.112 0 0 0-.125.021.114.114 0 0 0 .08.195ZM23.886 20.203v-.826c0-.122-.01-.144-.084-.144h-.108v.97h.192ZM22.861 19.369h.119v.596c0 .18.1.251.266.251a.616.616 0 0 0 .157-.02v-.121h-.089c-.097 0-.14-.03-.14-.131v-.575h.218v-.133h-.22v-.263h-.193v.263h-.118v.133Z" fill="#231F20"/><path fill-rule="evenodd" clip-rule="evenodd" d="M22.243 20.217c.267 0 .47-.186.47-.494s-.203-.503-.47-.503c-.268 0-.472.193-.472.503s.203.494.472.494Zm0-.144c-.167 0-.277-.117-.277-.352 0-.234.11-.359.277-.359.166 0 .275.127.275.36 0 .232-.108.351-.275.351Z" fill="#231F20"/><path d="M20.251 20.205h.17v-1.062h.009l.372 1.058h.128l.379-1.058h.004v1.058h.204v-1.297h-.28l-.347.984h-.004l-.35-.984h-.285v1.301ZM18.75 19.235h-.121v.97h.192v-.734a.609.609 0 0 1 .29-.096c.093 0 .148.033.148.153v.673h.193v-.716c0-.212-.114-.268-.254-.268a.644.644 0 0 0-.377.137c-.004-.102-.025-.122-.072-.122v.003ZM18.21 19.124a.112.112 0 0 0 .114-.107.114.114 0 0 0-.227 0 .112.112 0 0 0 .113.107ZM18.304 20.202v-.825c0-.122-.008-.144-.084-.144h-.108v.97l.192-.001Z" fill="#231F20"/><path fill-rule="evenodd" clip-rule="evenodd" d="M17.383 19.754v-.067c0-.319-.152-.469-.413-.469s-.449.192-.449.503c0 .31.167.494.467.494.13.005.258-.03.366-.103v-.13h-.062a.428.428 0 0 1-.274.089c-.184 0-.29-.089-.3-.318h.665Zm-.412-.406c.136 0 .218.072.223.28h-.471c.021-.205.12-.28.248-.28Zm0 0Z" fill="#231F20"/><path d="m16.333 19.385.042.003v-.157a.153.153 0 0 0-.052-.007.378.378 0 0 0-.283.144c-.004-.114-.025-.134-.072-.134h-.12v.97h.192v-.71a.436.436 0 0 1 .293-.108ZM15.048 20.069c-.09 0-.153-.03-.153-.154v-.683h-.191v.722c0 .197.114.26.268.26a.65.65 0 0 0 .358-.122c.004.094.023.107.068.107h.124v-.97h-.192v.742a.591.591 0 0 1-.28.092l-.002.006ZM13.923 19.363h.119v.596c0 .18.1.252.267.252a.605.605 0 0 0 .156-.02v-.122h-.088c-.097 0-.143-.03-.143-.13v-.575h.22v-.134h-.22v-.263h-.193v.263h-.119l.001.133ZM13.203 20.063c-.09 0-.152-.03-.152-.154v-.677h-.193v.722c0 .197.116.26.27.26a.642.642 0 0 0 .356-.122c.006.094.026.107.07.107h.12v-.97h-.192v.742a.586.586 0 0 1-.279.092ZM12.09 20.198v-.555h.463v-.15h-.464v-.433h.609v-.156h-.812v1.297l.204-.003Z" fill="#231F20"/><path fill-rule="evenodd" clip-rule="evenodd" d="M11.14 19.753v-.017c.002-.014.002-.033.002-.05 0-.319-.153-.47-.413-.47-.259 0-.45.193-.45.504 0 .31.167.494.47.494a.616.616 0 0 0 .363-.1v-.132h-.063a.426.426 0 0 1-.274.089c-.184 0-.29-.089-.3-.318h.665Zm-.411-.409c.135 0 .219.072.222.281h-.472c.02-.206.12-.281.25-.281Z" fill="#231F20"/><path d="M9.4 19.029c0-.108-.015-.125-.088-.125h-.105v1.297H9.4v-.73a.59.59 0 0 1 .287-.096c.093 0 .15.033.15.153v.673h.19v-.716c0-.212-.114-.268-.252-.268a.639.639 0 0 0-.376.137v-.325ZM8.602 20.2v-1.144h.38v-.152h-.964v.152h.378V20.2h.206Z" fill="#231F20"/></svg>
